svgs/light/light-switch-on.svg

<svg xmlns="http://www.w3.org/2000/svg" viewBox="0 0 384 512"><!--! Font Awesome Pro 6.6.0 by @fontawesome - https://fontawesome.com License - https://fontawesome.com/license (Commercial License) Copyright 2024 Fonticons, Inc. --><path d="M176 48l0-16L64 32C46.3 32 32 46.3 32 64l0 384c0 17.7 14.3 32 32 32l112 0 0-16c0-8.8 7.2-16 16-16s16 7.2 16 16l0 16 112 0c17.7 0 32-14.3 32-32l0-384c0-17.7-14.3-32-32-32L208 32l0 16c0 8.8-7.2 16-16 16s-16-7.2-16-16zM0 64C0 28.7 28.7 0 64 0L320 0c35.3 0 64 28.7 64 64l0 384c0 35.3-28.7 64-64 64L64 512c-35.3 0-64-28.7-64-64L0 64zM176 168l32 0c8.8 0 16 7.2 16 16s-7.2 16-16 16l-32 0c-8.8 0-16-7.2-16-16s7.2-16 16-16zm-48-24l0 96 128 0 0-96c0-8.8-7.2-16-16-16l-96 0c-8.8 0-16 7.2-16 16zm0 224c0 8.8 7.2 16 16 16l96 0c8.8 0 16-7.2 16-16l0-96-128 0 0 96zM96 144c0-26.5 21.5-48 48-48l96 0c26.5 0 48 21.5 48 48l0 224c0 26.5-21.5 48-48 48l-96 0c-26.5 0-48-21.5-48-48l0-224z"/></svg>

<svg xmlns="http://www.w3.org/2000/svg" viewBox="0 0 384 512"><!--! Font Awesome Pro 6.4.2 by @fontawesome - https://fontawesome.com License - https://fontawesome.com/license (Commercial License) Copyright 2023 Fonticons, Inc. --><path d="M176 48V32H64C46.3 32 32 46.3 32 64V448c0 17.7 14.3 32 32 32H176V464c0-8.8 7.2-16 16-16s16 7.2 16 16v16H320c17.7 0 32-14.3 32-32V64c0-17.7-14.3-32-32-32H208V48c0 8.8-7.2 16-16 16s-16-7.2-16-16zM0 64C0 28.7 28.7 0 64 0H320c35.3 0 64 28.7 64 64V448c0 35.3-28.7 64-64 64H64c-35.3 0-64-28.7-64-64V64zM176 168h32c8.8 0 16 7.2 16 16s-7.2 16-16 16H176c-8.8 0-16-7.2-16-16s7.2-16 16-16zm-48-24v96H256V144c0-8.8-7.2-16-16-16H144c-8.8 0-16 7.2-16 16zm0 224c0 8.8 7.2 16 16 16h96c8.8 0 16-7.2 16-16V272H128v96zM96 144c0-26.5 21.5-48 48-48h96c26.5 0 48 21.5 48 48V368c0 26.5-21.5 48-48 48H144c-26.5 0-48-21.5-48-48V144z"/></svg>
